X:1
T:Title
%%score ( 1 2 ) ( 3 4 )
L:1/8
Q:1/4=95
M:4/4
K:D
V:1 treble nm="Grand Piano, Soprano"
V:2 treble 
V:3 bass nm="Choir Pad, He Has Come (Knowles)"
V:4 bass 
V:1
 [FA]>[EG] [DF]2 [DF]>[DF] [DF]2 | [DF]>[EG] [FA]2 [FA]>[FA] [FA]2 | %2
w: By~John~Robson~Sweney * * * * *||
 [FA]>[FA] [GB]2 [Gc]>[Ge] [Fd]2 | [FA]>[DF] [CE]2 [EG]>[DF] [CE]2 | %4
w: ||
 [CA]>[CG] [DF]2 [DF]>[FA] [Fd]2 | d>c B2 F>F B2 | [DB]>[FA] [E^G]2 [Ed]>[Ed] dc | %7
w: |||
 [FB][FA] [EA]2 [D^G]>[DG] A=G | z2 d6 | z2 d6 | [Fd]>[Ac] [Ac]<[GB] [Gd]>[GB] [FA]2 | %11
w: ||||
 [DF]>D [CE]6 | C-[CE] D2 D>[DF] [FA]2- | [FA][FA] [GB]2 [GB]>[Gc] [Fd]2 | [DA][EG] [DF]4 [DF]2 | %15
w: ||||
 [CE]2 D6- | D2 z2 z4 |] %17
w: ||
V:2
 x8 | x8 | x8 | x8 | x8 | x8 | z4 z2 E2 | z4 z2 C2 | F>A z2 F>F F2 | F>A z2 F>F F2 | x8 | x8 | %12
 .F2 z2 z4 | x8 | x8 | x8 | x8 |] %17
V:3
 [D,D]>[D,A,] [D,A,]2 [D,A,]>[D,A,] [D,A,]2 | [D,A,]>[D,A,] [D,D]2 [D,D]>[D,D] [D,D]2 | %2
 [D,D]>[D,D] [G,D]2 [E,A,]>[A,,A,] [D,A,]2 | [D,D]>[D,A,] [A,,A,]2 [A,,A,]>[A,,A,] [A,,A,]2 | %4
 [A,,A,]>[A,,A,] [D,A,]2 [D,A,]>[D,A,] [D,A,]2 | D>C B,2 F,>F, B,2 | %6
 [B,,F,]>[B,,B,] [E,B,]2 [^G,B,]>[G,B,] A,2 | [D,A,][D,D] [E,C]2 [E,B,]>[E,B,] [A,,A,]2 | %8
 z4 [D,A,]>[D,A,] [D,A,]2 | z4 [D,A,]>[D,A,] [D,A,]2 | %10
 [D,A,]>[F,D] [G,D]<[G,D] [G,B,]>[G,D] [D,D]<[D,D] | [D,A,]>[F,A,] A,2 [A,,A,]>[A,,A,] [A,,A,]2 | %12
 A,G, [D,F,]2 [D,F,]>[D,A,] [D,D]2- | [D,D][D,D] [G,D]2 [G,D]>[E,A,] [D,A,]2 | %14
 [F,A,][G,B,] A,4 [A,,A,]2 | [A,,G,]2 [D,F,]6- | [D,F,]2 z2 z4 |] %17
V:4
 x8 | x8 | x8 | x8 | x8 | x8 | x8 | x8 | x8 | x8 | x8 | x8 | A,,2 z2 z4 | x8 | x8 | x8 | x8 |] %17

